!!! OTL: Berkowitz339
!!! Chapter: 1
!!! Section: III
!!! Page: 83
!!! Mode: 
!!! Encoder: DJB
**kern
*staff1
*I"Piano
=1-
*clefF4
*k[b-]
*F:
*M4/4
4F\
8r
8A\
4r
4F\
=2
8r
8C/
8r
8BB-/
4AA/
4C/
=3
4G\
8r
8B-\
4r
4G\
=4
8r
8c\
8r
8G\
4F\
4E\
=5
4F\
8r
8A\
4r
4F\
=6
8r
8C/
8r
8BB-/
4AA/
4C/
=7
4D\
8r
8G\
4r
4F\
=8
!!linebreak:original
8r
4.E\
4D\
4E\
=9
4F\
4G\
4A\
4r
=10
8r
8A\
8r
8G\
4F\
4C/
=11
4G\
4A\
4B-\
4r
=12
8r
8G\
8r
8F\
4E\
4C/
=13
4A\
4B-\
4c\
4r
=14
8r
8A\
8r
8G\
4F\
4C/
=15
4D\
8r
8G\
4r
4F\
=16
!!linebreak:original
8r
4.E\
4D\
4E\
=17
4F\
4F\
4F\
4r
==
*-
